X:14
T: Roanoke
C: Bill Monroe
Z: Arranged by Joe Carr; Transcribed by Mike Stangeland
S: MandoZine TablEdit Archives
L: 1/8
Q: 520
M: 4/4
K: G
 z6 ef | gf ga ge dB | AG FA G2 DE | =F2 =F2 (3=FED ^A,2 | G,6 GE
 |: "G"DC B,A, G,A, B,D | EF GB AG FE | DC B,A, G,A, B,D | "D"EF GA "G"G2 GE |
 DC B,A, G,A, B,D | EF GA Bd ef | gf ga ge dB |1 A"D"G FA "G"G2 =FE :|2 "D"AG FA "G"G4
 |: [b2d2D2G,2] [bdDG,][bdDG,] [b2d2D2G,2] [bdDG,][bdDG,] | [b2d2D2G,2] [a2c2] [g4B4] |
 "C"[e2G2G,2] [eGG,][eGG,] [e2G2G,2] [eGG,][eGG,] | [e2G2G,2] [d2=F2] [c4E4] |
 [b2d2D2G,2] [bdDG,][bdDG,] [b2d2D2G,2] [bdDG,][bdDG,] | [b2d2D2G,2] [a2c2] [g4B4] |
 "D"DE FA dA FD |1 G"G"E DB, G,4 :|2 G"G"E DB, G,2 ef |
 gf ga ge dB | AG FA GD EF | GB AG EF GE | DC B,A, G,4 ||
